assets/images/policy-bg.svg

<svg width="1920" height="7005" viewBox="0 0 1920 7005" fill="none" xmlns="http://www.w3.org/2000/svg">
<path opacity="0.11" d="M212 255L-106.161 -65.0005H-280L38.1768 255H212Z" fill="#FFB75E"/>
<path opacity="0.11" d="M2027 1926L1708.84 1606H1535L1853.18 1926H2027Z" fill="#FFB75E"/>
<path opacity="0.11" d="M1989 3302L1670.84 2982H1497L1815.18 3302H1989Z" fill="#FFB75E"/>
<path opacity="0.11" d="M52 3102L-266.161 2782H-440L-121.823 3102H52Z" fill="#FFB75E"/>
<path opacity="0.11" d="M2034 876L1715.84 556H1542L1860.18 876H2034Z" fill="#FFB75E"/>
<path opacity="0.11" d="M239.3 255L-66 -51.0005H109.82L412 251.872L239.3 255Z" fill="#FFB75E"/>
<path opacity="0.11" d="M2054.3 1926L1749 1620H1924.82L2227 1922.87L2054.3 1926Z" fill="#FFB75E"/>
<path opacity="0.11" d="M2016.3 3302L1711 2996H1886.82L2189 3298.87L2016.3 3302Z" fill="#FFB75E"/>
<path opacity="0.11" d="M79.3004 3102L-226 2796H-50.1796L252 3098.87L79.3004 3102Z" fill="#FFB75E"/>
<path opacity="0.11" d="M2061.3 876L1756 570H1931.82L2234 872.872L2061.3 876Z" fill="#FFB75E"/>
<path opacity="0.11" d="M1592.68 3965.86L1929 3967.81L1831.6 3870.41L1498.71 3868.48L1592.68 3965.86Z" fill="#FFB75E"/>
<path opacity="0.11" d="M1642.68 5448.86L1979 5450.81L1881.6 5353.41L1548.71 5351.48L1642.68 5448.86Z" fill="#FFB75E"/>
<path opacity="0.11" d="M-84.3244 3965.86L252 3967.81L154.595 3870.41L-178.291 3868.48L-84.3244 3965.86Z" fill="#FFB75E"/>
<g filter="url(#filter0_f_392_177)">
<path d="M1829.88 4186.67L1876.59 4247.52C1877.99 4249.34 1875.72 4251.69 1873.85 4250.37L1783.17 4186.08C1781.26 4184.72 1778.98 4187.18 1780.47 4188.98L1882.77 4312.27C1884.26 4314.07 1881.98 4316.54 1880.07 4315.18L1735.49 4212.68C1733.55 4211.31 1731.26 4213.86 1732.84 4215.64L1864.11 4364.08C1865.74 4365.93 1863.24 4368.52 1861.34 4366.95L1704.28 4237.07C1702.37 4235.5 1699.87 4238.1 1701.51 4239.94L1840.96 4396.65L1718.31 4283.6C1716.54 4281.98 1713.94 4284.27 1715.32 4286.23L1783.11 4382.24C1784.41 4384.08 1782.16 4386.33 1780.32 4385.03L1688.82 4320.15C1686.9 4318.79 1684.61 4321.28 1686.13 4323.07L1739.34 4385.99C1740.86 4387.79 1738.57 4390.28 1736.66 4388.92L1688.35 4354.67" stroke="#FFB75E" stroke-opacity="0.76" stroke-width="2" stroke-linecap="round"/>
</g>
<g filter="url(#filter1_f_392_177)">
<path d="M113.753 4599.29L158.374 4657.41C159.772 4659.23 157.503 4661.59 155.631 4660.26L69.3007 4599.05C67.3926 4597.7 65.1113 4600.16 66.6048 4601.96L164.251 4719.65C165.744 4721.45 163.463 4723.91 161.555 4722.56L23.5126 4624.69C21.574 4623.32 19.2835 4625.87 20.8577 4627.65L146.027 4769.19C147.661 4771.04 145.155 4773.63 143.254 4772.06L-6.27865 4648.4C-8.18255 4646.83 -10.6896 4649.43 -9.04724 4651.28L124.411 4801.25L6.97477 4693.01C5.21089 4691.38 2.60189 4693.67 3.98554 4695.63L68.5188 4787.03C69.8159 4788.86 67.5628 4791.11 65.7283 4789.81L-21.4296 4728.02C-23.3467 4726.66 -25.6309 4729.15 -24.1135 4730.94L26.2851 4790.54C27.8026 4792.33 25.5184 4794.82 23.6013 4793.46L-22.3699 4760.87" stroke="#D3D3D3" stroke-opacity="0.76" stroke-width="2" stroke-linecap="round"/>
</g>
<path d="M1219.75 -42.7143L1264.37 15.4096C1265.77 17.2298 1263.5 19.5862 1261.63 18.2591L1175.3 -42.9455C1173.39 -44.2983 1171.11 -41.8369 1172.6 -40.0368L1270.25 77.6484C1271.74 79.4484 1269.46 81.9098 1267.55 80.557L1129.51 -17.3088C1127.57 -18.6832 1125.28 -16.1325 1126.86 -14.3523L1252.03 127.189C1253.66 129.037 1251.16 131.627 1249.25 130.055L1099.72 6.40426C1097.82 4.8299 1095.31 7.42955 1096.95 9.27512L1230.41 159.248L1112.97 51.0086C1111.21 49.3828 1108.6 51.6732 1109.99 53.6328L1174.52 145.026C1175.82 146.862 1173.56 149.111 1171.73 147.811L1084.57 86.0196C1082.65 84.6605 1080.37 87.1482 1081.89 88.9426L1132.29 148.54C1133.8 150.334 1131.52 152.822 1129.6 151.463L1083.63 118.871" stroke="#FFB75E" stroke-opacity="0.29" stroke-width="2" stroke-linecap="round"/>
<path opacity="0.17" d="M2007.28 3980.63L1600 3980.65L1624.34 4004.99L1856.44 4004.97L1915.68 4064.21L2043.93 4064.21L2007.28 3980.63Z" fill="#5C5C5C" fill-opacity="0.29"/>
<path opacity="0.17" d="M2057.28 5463.63L1650 5463.65L1674.34 5487.99L1906.44 5487.97L1965.68 5547.21L2093.93 5547.21L2057.28 5463.63Z" fill="#5C5C5C" fill-opacity="0.29"/>
<path opacity="0.17" d="M173.276 5358.63L-234 5358.65L-209.656 5382.99L22.4398 5382.97L81.6786 5442.21L209.934 5442.21L173.276 5358.63Z" fill="#5C5C5C" fill-opacity="0.29"/>
<path opacity="0.17" d="M1685.72 4681.97L1907.34 4460.35L1903.9 4456.91L1682.28 4678.53L1685.72 4681.97Z" fill="#FFB75E"/>
<path opacity="0.17" d="M1696.72 4691.61L1918.34 4469.99L1914.9 4466.55L1693.28 4688.16L1696.72 4691.61Z" fill="#FFB75E"/>
<path opacity="0.17" d="M1714.72 4696.61L1936.34 4474.99L1932.9 4471.55L1711.28 4693.16L1714.72 4696.61Z" fill="#FFB75E"/>
<path opacity="0.17" d="M1694.44 4746.06L1916.06 4524.44L1912.62 4521L1691 4742.62L1694.44 4746.06Z" fill="#FFB75E"/>
<path opacity="0.17" d="M1722.44 4746.06L1944.06 4524.44L1940.62 4521L1719 4742.62L1722.44 4746.06Z" fill="#FFB75E"/>
<path opacity="0.17" d="M1753.44 4743.06L1975.06 4521.44L1971.62 4518L1750 4739.62L1753.44 4743.06Z" fill="#FFB75E"/>
<path opacity="0.17" d="M1778.44 4743.06L2000.06 4521.44L1996.62 4518L1775 4739.62L1778.44 4743.06Z" fill="#FFB75E"/>
<path opacity="0.17" d="M1801.44 4743.06L2023.06 4521.44L2019.62 4518L1798 4739.62L1801.44 4743.06Z" fill="#FFB75E"/>
<path opacity="0.17" d="M1824.44 4746.06L2046.06 4524.44L2042.62 4521L1821 4742.62L1824.44 4746.06Z" fill="#FFB75E"/>
<g filter="url(#filter2_f_392_177)">
<path d="M1111.75 6746.29L1156.37 6804.41C1157.77 6806.23 1155.5 6808.59 1153.63 6807.26L1067.3 6746.05C1065.39 6744.7 1063.11 6747.16 1064.6 6748.96L1162.25 6866.65C1163.74 6868.45 1161.46 6870.91 1159.55 6869.56L1021.51 6771.69C1019.57 6770.32 1017.28 6772.87 1018.86 6774.65L1144.03 6916.19C1145.66 6918.04 1143.16 6920.63 1141.25 6919.06L991.721 6795.4C989.817 6793.83 987.31 6796.43 988.953 6798.28L1122.41 6948.25L1004.97 6840.01C1003.21 6838.38 1000.6 6840.67 1001.99 6842.63L1066.52 6934.03C1067.82 6935.86 1065.56 6938.11 1063.73 6936.81L976.57 6875.02C974.653 6873.66 972.369 6876.15 973.887 6877.94L1024.29 6937.54C1025.8 6939.33 1023.52 6941.82 1021.6 6940.46L975.63 6907.87" stroke="#FFB75E" stroke-opacity="0.76" stroke-width="2" stroke-linecap="round"/>
</g>
<g filter="url(#filter3_f_392_177)">
<path d="M149.753 6716.29L194.374 6774.41C195.772 6776.23 193.503 6778.59 191.631 6777.26L105.301 6716.05C103.393 6714.7 101.111 6717.16 102.605 6718.96L200.251 6836.65C201.744 6838.45 199.463 6840.91 197.555 6839.56L59.5126 6741.69C57.574 6740.32 55.2835 6742.87 56.8577 6744.65L182.027 6886.19C183.661 6888.04 181.155 6890.63 179.254 6889.06L29.7214 6765.4C27.8175 6763.83 25.3104 6766.43 26.9528 6768.28L160.411 6918.25L42.9748 6810.01C41.2109 6808.38 38.6019 6810.67 39.9855 6812.63L104.519 6904.03C105.816 6905.86 103.563 6908.11 101.728 6906.81L14.5704 6845.02C12.6533 6843.66 10.3691 6846.15 11.8865 6847.94L62.2851 6907.54C63.8026 6909.33 61.5184 6911.82 59.6013 6910.46L13.6301 6877.87" stroke="#D3D3D3" stroke-opacity="0.76" stroke-width="2" stroke-linecap="round"/>
</g>
<defs>
<filter id="filter0_f_392_177" x="1680.63" y="4180.68" width="207.633" height="220.709" filterUnits="userSpaceOnUse" color-interpolation-filters="sRGB">
<feFlood flood-opacity="0" result="BackgroundImageFix"/>
<feBlend mode="normal" in="SourceGraphic" in2="BackgroundImageFix" result="shape"/>
<feGaussianBlur stdDeviation="2" result="effect1_foregroundBlur_392_177"/>
</filter>
<filter id="filter1_f_392_177" x="-29.6191" y="4593.65" width="199.363" height="212.329" filterUnits="userSpaceOnUse" color-interpolation-filters="sRGB">
<feFlood flood-opacity="0" result="BackgroundImageFix"/>
<feBlend mode="normal" in="SourceGraphic" in2="BackgroundImageFix" result="shape"/>
<feGaussianBlur stdDeviation="2" result="effect1_foregroundBlur_392_177"/>
</filter>
<filter id="filter2_f_392_177" x="968.381" y="6740.65" width="199.363" height="212.329" filterUnits="userSpaceOnUse" color-interpolation-filters="sRGB">
<feFlood flood-opacity="0" result="BackgroundImageFix"/>
<feBlend mode="normal" in="SourceGraphic" in2="BackgroundImageFix" result="shape"/>
<feGaussianBlur stdDeviation="2" result="effect1_foregroundBlur_392_177"/>
</filter>
<filter id="filter3_f_392_177" x="6.38086" y="6710.65" width="199.363" height="212.329" filterUnits="userSpaceOnUse" color-interpolation-filters="sRGB">
<feFlood flood-opacity="0" result="BackgroundImageFix"/>
<feBlend mode="normal" in="SourceGraphic" in2="BackgroundImageFix" result="shape"/>
<feGaussianBlur stdDeviation="2" result="effect1_foregroundBlur_392_177"/>
</filter>
</defs>
</svg>

<svg width="1920" height="7005" fill="none" xmlns="http://www.w3.org/2000/svg"><path opacity=".11" d="M212 255-106.161-65H-280L38.177 255H212ZM2027 1926l-318.16-320H1535l318.18 320H2027ZM1989 3302l-318.16-320H1497l318.18 320H1989ZM52 3102l-318.161-320H-440l318.177 320H52ZM2034 876l-318.16-320H1542l318.18 320H2034ZM239.3 255-66-51h175.82L412 251.872 239.3 255ZM2054.3 1926 1749 1620h175.82L2227 1922.87l-172.7 3.13ZM2016.3 3302 1711 2996h175.82L2189 3298.87l-172.7 3.13ZM79.3 3102-226 2796h175.82L252 3098.87 79.3 3102ZM2061.3 876 1756 570h175.82L2234 872.872 2061.3 876ZM1592.68 3965.86l336.32 1.95-97.4-97.4-332.89-1.93 93.97 97.38ZM1642.68 5448.86l336.32 1.95-97.4-97.4-332.89-1.93 93.97 97.38ZM-84.324 3965.86 252 3967.81l-97.405-97.4-332.886-1.93 93.967 97.38Z" fill="#FFB75E"/><g filter="url(#a)"><path d="m1829.88 4186.67 46.71 60.85c1.4 1.82-.87 4.17-2.74 2.85l-90.68-64.29c-1.91-1.36-4.19 1.1-2.7 2.9l102.3 123.29c1.49 1.8-.79 4.27-2.7 2.91l-144.58-102.5c-1.94-1.37-4.23 1.18-2.65 2.96l131.27 148.44c1.63 1.85-.87 4.44-2.77 2.87l-157.06-129.88c-1.91-1.57-4.41 1.03-2.77 2.87l139.45 156.71-122.65-113.05c-1.77-1.62-4.37.67-2.99 2.63l67.79 96.01c1.3 1.84-.95 4.09-2.79 2.79l-91.5-64.88c-1.92-1.36-4.21 1.13-2.69 2.92l53.21 62.92c1.52 1.8-.77 4.29-2.68 2.93l-48.31-34.25" stroke="#FFB75E" stroke-opacity=".76" stroke-width="2" stroke-linecap="round"/></g><g filter="url(#b)"><path d="m113.753 4599.29 44.621 58.12c1.398 1.82-.871 4.18-2.743 2.85l-86.33-61.21c-1.908-1.35-4.19 1.11-2.696 2.91l97.646 117.69c1.493 1.8-.788 4.26-2.696 2.91l-138.042-97.87c-1.939-1.37-4.23 1.18-2.655 2.96l125.169 141.54c1.634 1.85-.872 4.44-2.773 2.87L-6.279 4648.4c-1.904-1.57-4.41 1.03-2.768 2.88l133.458 149.97L6.975 4693.01c-1.764-1.63-4.373.66-2.99 2.62l64.534 91.4c1.297 1.83-.956 4.08-2.79 2.78l-87.159-61.79c-1.917-1.36-4.2 1.13-2.683 2.92l50.398 59.6c1.518 1.79-.767 4.28-2.684 2.92l-45.97-32.59" stroke="#D3D3D3" stroke-opacity=".76" stroke-width="2" stroke-linecap="round"/></g><path d="m1219.75-42.714 44.62 58.124c1.4 1.82-.87 4.176-2.74 2.85l-86.33-61.206c-1.91-1.352-4.19 1.11-2.7 2.91l97.65 117.684c1.49 1.8-.79 4.262-2.7 2.909l-138.04-97.866c-1.94-1.374-4.23 1.177-2.65 2.957l125.17 141.541c1.63 1.848-.87 4.438-2.78 2.866L1099.72 6.405c-1.9-1.575-4.41 1.025-2.77 2.87l133.46 149.973-117.44-108.24c-1.76-1.625-4.37.665-2.98 2.625l64.53 91.393c1.3 1.836-.96 4.085-2.79 2.785l-87.16-61.791c-1.92-1.36-4.2 1.128-2.68 2.923l50.4 59.597c1.51 1.794-.77 4.282-2.69 2.923l-45.97-32.592" stroke="#FFB75E" stroke-opacity=".29" stroke-width="2" stroke-linecap="round"/><path opacity=".17" d="m2007.28 3980.63-407.28.02 24.34 24.34 232.1-.02 59.24 59.24h128.25l-36.65-83.58ZM2057.28 5463.63l-407.28.02 24.34 24.34 232.1-.02 59.24 59.24h128.25l-36.65-83.58ZM173.276 5358.63l-407.276.02 24.344 24.34 232.096-.02 59.239 59.24h128.255l-36.658-83.58Z" fill="#5C5C5C" fill-opacity=".29"/><path opacity=".17" d="m1685.72 4681.97 221.62-221.62-3.44-3.44-221.62 221.62 3.44 3.44ZM1696.72 4691.61l221.62-221.62-3.44-3.44-221.62 221.61 3.44 3.45ZM1714.72 4696.61l221.62-221.62-3.44-3.44-221.62 221.61 3.44 3.45ZM1694.44 4746.06l221.62-221.62-3.44-3.44L1691 4742.62l3.44 3.44ZM1722.44 4746.06l221.62-221.62-3.44-3.44L1719 4742.62l3.44 3.44ZM1753.44 4743.06l221.62-221.62-3.44-3.44L1750 4739.62l3.44 3.44ZM1778.44 4743.06l221.62-221.62-3.44-3.44L1775 4739.62l3.44 3.44ZM1801.44 4743.06l221.62-221.62-3.44-3.44L1798 4739.62l3.44 3.44ZM1824.44 4746.06l221.62-221.62-3.44-3.44L1821 4742.62l3.44 3.44Z" fill="#FFB75E"/><g filter="url(#c)"><path d="m1111.75 6746.29 44.62 58.12c1.4 1.82-.87 4.18-2.74 2.85l-86.33-61.21c-1.91-1.35-4.19 1.11-2.7 2.91l97.65 117.69c1.49 1.8-.79 4.26-2.7 2.91l-138.04-97.87c-1.94-1.37-4.23 1.18-2.65 2.96l125.17 141.54c1.63 1.85-.87 4.44-2.78 2.87L991.721 6795.4c-1.904-1.57-4.411 1.03-2.768 2.88l133.457 149.97-117.44-108.24c-1.76-1.63-4.37.66-2.98 2.62l64.53 91.4c1.3 1.83-.96 4.08-2.79 2.78l-87.16-61.79c-1.917-1.36-4.201 1.13-2.683 2.92l50.403 59.6c1.51 1.79-.77 4.28-2.69 2.92l-45.97-32.59" stroke="#FFB75E" stroke-opacity=".76" stroke-width="2" stroke-linecap="round"/></g><g filter="url(#d)"><path d="m149.753 6716.29 44.621 58.12c1.398 1.82-.871 4.18-2.743 2.85l-86.33-61.21c-1.908-1.35-4.19 1.11-2.696 2.91l97.646 117.69c1.493 1.8-.788 4.26-2.696 2.91l-138.042-97.87c-1.939-1.37-4.23 1.18-2.655 2.96l125.169 141.54c1.634 1.85-.872 4.44-2.773 2.87L29.721 6765.4c-1.904-1.57-4.41 1.03-2.768 2.88l133.458 149.97-117.436-108.24c-1.764-1.63-4.373.66-2.99 2.62l64.534 91.4c1.297 1.83-.956 4.08-2.791 2.78l-87.158-61.79c-1.917-1.36-4.2 1.13-2.684 2.92l50.4 59.6c1.517 1.79-.768 4.28-2.685 2.92l-45.97-32.59" stroke="#D3D3D3" stroke-opacity=".76" stroke-width="2" stroke-linecap="round"/></g><defs><filter id="a" x="1680.63" y="4180.68" width="207.633" height="220.709" filterUnits="userSpaceOnUse" color-interpolation-filters="sRGB"><feFlood flood-opacity="0" result="BackgroundImageFix"/><feBlend in="SourceGraphic" in2="BackgroundImageFix" result="shape"/><feGaussianBlur stdDeviation="2" result="effect1_foregroundBlur_392_177"/></filter><filter id="b" x="-29.619" y="4593.65" width="199.363" height="212.329" filterUnits="userSpaceOnUse" color-interpolation-filters="sRGB"><feFlood flood-opacity="0" result="BackgroundImageFix"/><feBlend in="SourceGraphic" in2="BackgroundImageFix" result="shape"/><feGaussianBlur stdDeviation="2" result="effect1_foregroundBlur_392_177"/></filter><filter id="c" x="968.381" y="6740.65" width="199.363" height="212.329" filterUnits="userSpaceOnUse" color-interpolation-filters="sRGB"><feFlood flood-opacity="0" result="BackgroundImageFix"/><feBlend in="SourceGraphic" in2="BackgroundImageFix" result="shape"/><feGaussianBlur stdDeviation="2" result="effect1_foregroundBlur_392_177"/></filter><filter id="d" x="6.381" y="6710.65" width="199.363" height="212.329" filterUnits="userSpaceOnUse" color-interpolation-filters="sRGB"><feFlood flood-opacity="0" result="BackgroundImageFix"/><feBlend in="SourceGraphic" in2="BackgroundImageFix" result="shape"/><feGaussianBlur stdDeviation="2" result="effect1_foregroundBlur_392_177"/></filter></defs></svg>
